templates/flag_icons/lb.svg

<?xml version="1.0" encoding="UTF-8" standalone="no"?>
<svg width="23px" height="17px" viewBox="0 0 23 17" version="1.1" xmlns="http://www.w3.org/2000/svg" xmlns:xlink="http://www.w3.org/1999/xlink">
    <!-- Generator: Sketch 3.7.2 (28276) - http://www.bohemiancoding.com/sketch -->
    <title>LB</title>
    <desc>Created with Sketch.</desc>
    <defs>
        <linearGradient x1="50%" y1="0%" x2="50%" y2="100%" id="linearGradient-1">
            <stop stop-color="#FFFFFF" offset="0%"></stop>
            <stop stop-color="#F0F0F0" offset="100%"></stop>
        </linearGradient>
        <rect id="path-2" x="0" y="0" width="21" height="15" rx="1.5"></rect>
        <filter x="-50%" y="-50%" width="200%" height="200%" filterUnits="objectBoundingBox" id="filter-4">
            <feOffset dx="0" dy="0.5" in="SourceAlpha" result="shadowOffsetOuter1"></feOffset>
            <feGaussianBlur stdDeviation="0.5" in="shadowOffsetOuter1" result="shadowBlurOuter1"></feGaussianBlur>
            <feColorMatrix values="0 0 0 0 0   0 0 0 0 0   0 0 0 0 0  0 0 0 0.16 0" type="matrix" in="shadowBlurOuter1"></feColorMatrix>
        </filter>
        <linearGradient x1="50%" y1="0%" x2="50%" y2="100%" id="linearGradient-5">
            <stop stop-color="#F0333F" offset="0%"></stop>
            <stop stop-color="#EB212E" offset="100%"></stop>
        </linearGradient>
        <rect id="path-6" x="0" y="0" width="21" height="4"></rect>
        <filter x="-50%" y="-50%" width="200%" height="200%" filterUnits="objectBoundingBox" id="filter-7">
            <feMorphology radius="0.25" operator="dilate" in="SourceAlpha" result="shadowSpreadOuter1"></feMorphology>
            <feOffset dx="0" dy="0" in="shadowSpreadOuter1" result="shadowOffsetOuter1"></feOffset>
            <feColorMatrix values="0 0 0 0 0   0 0 0 0 0   0 0 0 0 0  0 0 0 0.06 0" type="matrix" in="shadowOffsetOuter1"></feColorMatrix>
        </filter>
        <rect id="path-8" x="0" y="11" width="21" height="4"></rect>
        <filter x="-50%" y="-50%" width="200%" height="200%" filterUnits="objectBoundingBox" id="filter-9">
            <feMorphology radius="0.25" operator="dilate" in="SourceAlpha" result="shadowSpreadOuter1"></feMorphology>
            <feOffset dx="0" dy="0" in="shadowSpreadOuter1" result="shadowOffsetOuter1"></feOffset>
            <feColorMatrix values="0 0 0 0 0   0 0 0 0 0   0 0 0 0 0  0 0 0 0.06 0" type="matrix" in="shadowOffsetOuter1"></feColorMatrix>
        </filter>
        <rect id="path-10" x="0" y="4" width="21" height="7"></rect>
        <filter x="-50%" y="-50%" width="200%" height="200%" filterUnits="objectBoundingBox" id="filter-11">
            <feMorphology radius="0.25" operator="dilate" in="SourceAlpha" result="shadowSpreadOuter1"></feMorphology>
            <feOffset dx="0" dy="0" in="shadowSpreadOuter1" result="shadowOffsetOuter1"></feOffset>
            <feColorMatrix values="0 0 0 0 0   0 0 0 0 0   0 0 0 0 0  0 0 0 0.06 0" type="matrix" in="shadowOffsetOuter1"></feColorMatrix>
        </filter>
        <linearGradient x1="50%" y1="0%" x2="50%" y2="100%" id="linearGradient-12">
            <stop stop-color="#1EC065" offset="0%"></stop>
            <stop stop-color="#17A555" offset="100%"></stop>
        </linearGradient>
    </defs>
    <g id="Flag-Kit" stroke="none" stroke-width="1" fill="none" fill-rule="evenodd">
        <g id="LB">
            <g id="AE-Copy-4" transform="translate(1.000000, 1.000000)">
                <mask id="mask-3" fill="white">
                    <use xlink:href="#path-2"></use>
                </mask>
                <g id="Mask">
                    <use fill="black" fill-opacity="1" filter="url(#filter-4)" xlink:href="#path-2"></use>
                    <use fill="url(#linearGradient-1)" fill-rule="evenodd" xlink:href="#path-2"></use>
                </g>
                <g id="Rectangle-2" mask="url(#mask-3)">
                    <use fill="black" fill-opacity="1" filter="url(#filter-7)" xlink:href="#path-6"></use>
                    <use fill="url(#linearGradient-5)" fill-rule="evenodd" xlink:href="#path-6"></use>
                </g>
                <g id="Rectangle-2" mask="url(#mask-3)">
                    <use fill="black" fill-opacity="1" filter="url(#filter-9)" xlink:href="#path-8"></use>
                    <use fill="url(#linearGradient-5)" fill-rule="evenodd" xlink:href="#path-8"></use>
                </g>
                <g id="Rectangle-2-Copy-4" mask="url(#mask-3)">
                    <use fill="black" fill-opacity="1" filter="url(#filter-11)" xlink:href="#path-10"></use>
                    <use fill="url(#linearGradient-1)" fill-rule="evenodd" xlink:href="#path-10"></use>
                </g>
                <path d="M9.65024853,9.34975144 C9.84341093,9.15658903 9.84179688,8.84179683 9.64731216,8.64731212 L9.85268784,8.85268779 C9.65790372,8.65790368 9.28596497,8.55350871 9.01585579,8.62103601 L7.98414421,8.8789639 C7.71675875,8.94581027 7.68457031,8.86157222 7.90472984,8.69645257 L9.09527016,7.80354734 C9.31879628,7.63590275 9.27866983,7.49999995 8.99216843,7.49999995 L8.50783157,7.49999995 C8.22736394,7.49999995 8.19907951,7.4004602 8.44386482,7.27806754 L9.55613518,6.72193236 C9.80127495,6.59936248 9.77866983,6.49999995 9.49216843,6.49999995 L9.00783157,6.49999995 C8.72736394,6.49999995 8.68457031,6.36157222 8.90472984,6.19645257 L10.0952702,5.30354734 C10.3187963,5.13590275 10.6845703,5.13842769 10.9047298,5.30354734 L12.0952702,6.19645257 C12.3187963,6.36409716 12.2786698,6.49999995 11.9921684,6.49999995 L11.5078316,6.49999995 C11.2273639,6.49999995 11.1990795,6.59953971 11.4438648,6.72193236 L12.5561352,7.27806754 C12.8012749,7.40063743 12.7786698,7.49999995 12.4921684,7.49999995 L12.0078316,7.49999995 C11.7273639,7.49999995 11.6845703,7.63842769 11.9047298,7.80354734 L13.0952702,8.69645257 C13.3187963,8.86409716 13.285965,8.9464912 13.0158558,8.8789639 L11.9841442,8.62103601 C11.7167587,8.55418964 11.3417969,8.65820308 11.1473122,8.85268779 L11.3526878,8.64731212 C11.1579037,8.84209623 11.15625,9.15624995 11.3497515,9.34975143 L11.6502485,9.65024848 C11.8434109,9.84341089 11.7842474,9.99999996 11.504611,9.99999996 L9.49538898,9.99999999 C9.2217932,10 9.15625,9.84374999 9.34975147,9.65024851 L9.65024853,9.34975144 Z" id="Rectangle-317" fill="url(#linearGradient-12)" mask="url(#mask-3)"></path>
                <rect id="Depth" mask="url(#mask-3)" x="0" y="0" width="21" height="15" rx="1.5"></rect>
            </g>
        </g>
    </g>
</svg>

<svg width="23" height="17" viewBox="0 0 23 17" xmlns="http://www.w3.org/2000/svg" xmlns:xlink="http://www.w3.org/1999/xlink"><title>LB</title><defs><linearGradient x1="50%" y1="0%" x2="50%" y2="100%" id="c"><stop stop-color="#FFF" offset="0%"/><stop stop-color="#F0F0F0" offset="100%"/></linearGradient><rect id="a" width="21" height="15" rx="1.5"/><filter x="-50%" y="-50%" width="200%" height="200%" filterUnits="objectBoundingBox" id="b"><feOffset dy=".5" in="SourceAlpha" result="shadowOffsetOuter1"/><feGaussianBlur stdDeviation=".5" in="shadowOffsetOuter1" result="shadowBlurOuter1"/><feColorMatrix values="0 0 0 0 0 0 0 0 0 0 0 0 0 0 0 0 0 0 0.16 0" in="shadowBlurOuter1"/></filter><linearGradient x1="50%" y1="0%" x2="50%" y2="100%" id="g"><stop stop-color="#F0333F" offset="0%"/><stop stop-color="#EB212E" offset="100%"/></linearGradient><path id="f" d="M0 0h21v4H0z"/><filter x="-50%" y="-50%" width="200%" height="200%" filterUnits="objectBoundingBox" id="e"><feMorphology radius=".25" operator="dilate" in="SourceAlpha" result="shadowSpreadOuter1"/><feOffset in="shadowSpreadOuter1" result="shadowOffsetOuter1"/><feColorMatrix values="0 0 0 0 0 0 0 0 0 0 0 0 0 0 0 0 0 0 0.06 0" in="shadowOffsetOuter1"/></filter><path id="i" d="M0 11h21v4H0z"/><filter x="-50%" y="-50%" width="200%" height="200%" filterUnits="objectBoundingBox" id="h"><feMorphology radius=".25" operator="dilate" in="SourceAlpha" result="shadowSpreadOuter1"/><feOffset in="shadowSpreadOuter1" result="shadowOffsetOuter1"/><feColorMatrix values="0 0 0 0 0 0 0 0 0 0 0 0 0 0 0 0 0 0 0.06 0" in="shadowOffsetOuter1"/></filter><path id="k" d="M0 4h21v7H0z"/><filter x="-50%" y="-50%" width="200%" height="200%" filterUnits="objectBoundingBox" id="j"><feMorphology radius=".25" operator="dilate" in="SourceAlpha" result="shadowSpreadOuter1"/><feOffset in="shadowSpreadOuter1" result="shadowOffsetOuter1"/><feColorMatrix values="0 0 0 0 0 0 0 0 0 0 0 0 0 0 0 0 0 0 0.06 0" in="shadowOffsetOuter1"/></filter><linearGradient x1="50%" y1="0%" x2="50%" y2="100%" id="l"><stop stop-color="#1EC065" offset="0%"/><stop stop-color="#17A555" offset="100%"/></linearGradient></defs><g transform="translate(1 1)" fill="none" fill-rule="evenodd"><mask id="d" fill="#fff"><use xlink:href="#a"/></mask><use fill="#000" filter="url(#b)" xlink:href="#a"/><use fill="url(#c)" xlink:href="#a"/><g mask="url(#d)"><use fill="#000" filter="url(#e)" xlink:href="#f"/><use fill="url(#g)" xlink:href="#f"/></g><g mask="url(#d)"><use fill="#000" filter="url(#h)" xlink:href="#i"/><use fill="url(#g)" xlink:href="#i"/></g><g mask="url(#d)"><use fill="#000" filter="url(#j)" xlink:href="#k"/><use fill="url(#c)" xlink:href="#k"/></g><path d="M9.65 9.35c.2-.2.2-.5 0-.7l.2.2a.97.97 0 0 0-.83-.23l-1.04.26c-.26.07-.3-.02-.08-.18l1.2-.9c.22-.16.18-.3-.1-.3h-.5c-.27 0-.3-.1-.06-.22l1.12-.56c.24-.12.22-.22-.07-.22h-.48c-.28 0-.33-.14-.1-.3l1.19-.9a.72.72 0 0 1 .8 0l1.2.9c.22.16.18.3-.1.3h-.5c-.27 0-.3.1-.06.22l1.12.56c.24.12.22.22-.07.22h-.48c-.28 0-.33.14-.1.3l1.19.9c.22.16.19.25-.08.18l-1.04-.26a.98.98 0 0 0-.83.23l.2-.2c-.2.2-.2.5 0 .7l.3.3c.2.2.13.35-.15.35h-2c-.28 0-.34-.16-.15-.35l.3-.3z" fill="url(#l)" mask="url(#d)"/><rect mask="url(#d)" width="21" height="15" rx="1.5"/></g></svg>
